svg/Pictogram/pictograms-nps-services-laundromat.svg

<svg xmlns="http://www.w3.org/2000/svg" width="123.55" height="123.54" viewBox="-0.258 -0.548 123.547 123.539" enable-background="new -0.258 -0.548 123.547 123.539"><path d="m108.95 122.79c8.156 0 14.773-6.594 14.773-14.742v-94.04c0-8.133-6.617-14.75-14.773-14.75h-94.02c-8.133 0-14.75 6.617-14.75 14.75v94.04c0 8.148 6.617 14.742 14.75 14.742h94.02"/><path d="m14.93 1.77c-6.75 0-12.242 5.492-12.242 12.242v94.04c0 6.758 5.492 12.25 12.242 12.25h94.02c6.766 0 12.258-5.492 12.258-12.25v-94.04c0-6.75-5.492-12.242-12.258-12.242h-94.02"/><g fill="#fff"><path d="m93.52 16.08c1.734 0 3.125 1.398 3.125 3.102v10.633h-68.54v-10.61c0-1.703 1.391-3.094 3.102-3.094l62.31-.031m-45.24 10.336c1.875 0 3.406-1.555 3.406-3.438 0-1.875-1.531-3.414-3.406-3.414-1.883 0-3.406 1.539-3.406 3.414 0 1.883 1.523 3.438 3.406 3.438m-10.04 0c1.906 0 3.406-1.555 3.406-3.438 0-1.875-1.5-3.414-3.406-3.414-1.875 0-3.406 1.539-3.406 3.414 0 1.883 1.531 3.438 3.406 3.438"/><path d="m27.938 106.53v-68.805c0-1.711 1.398-3.102 3.102-3.102h62.34c1.711 0 3.102 1.391 3.102 3.102v68.828l-68.54-.023m33.914-15.648c12.188 0 22.08-9.891 22.08-22.08s-9.891-22.08-22.08-22.08c-12.195 0-22.07 9.891-22.07 22.08s9.874 22.08 22.07 22.08"/><path d="m79.73 63.16c.469 1.609.711 3.305.711 5.078 0 10.234-8.328 18.531-18.562 18.531-10.25 0-18.555-8.297-18.555-18.531 0-1.906.297-3.734.805-5.453v.031c1.188 1.281 2.875 2.094 4.773 2.094 1.648 0 3.125-.594 4.273-1.617h-.023c1.156 1.023 2.664 1.617 4.297 1.617 1.695 0 3.25-.648 4.406-1.75v.023c1.148 1.079 2.687 1.727 4.398 1.727 1.758 0 3.375-.695 4.516-1.828v.023c1.148 1.133 2.734 1.805 4.5 1.805 1.703 0 3.289-.672 4.438-1.773l.023.023"/></g></svg>

<?xml version="1.0" encoding="iso-8859-1"?>
<!-- Generator: Adobe Illustrator 13.0.2, SVG Export Plug-In . SVG Version: 6.00 Build 14948)  -->
<!DOCTYPE svg PUBLIC "-//W3C//DTD SVG 1.1//EN" "http://www.w3.org/Graphics/SVG/1.1/DTD/svg11.dtd">
<svg version="1.1" id="Layer_1" xmlns="http://www.w3.org/2000/svg" xmlns:xlink="http://www.w3.org/1999/xlink" x="0px" y="0px"
	 width="123.547px" height="123.539px" viewBox="-0.258 -0.548 123.547 123.539"
	 style="enable-background:new -0.258 -0.548 123.547 123.539;" xml:space="preserve">
<g>
	<path d="M108.953,122.793c8.156,0,14.773-6.594,14.773-14.742V14.012c0-8.133-6.617-14.75-14.773-14.75H14.93
		c-8.133,0-14.75,6.617-14.75,14.75v94.039c0,8.148,6.617,14.742,14.75,14.742H108.953z"/>
	<path d="M14.93,1.77c-6.75,0-12.242,5.492-12.242,12.242v94.039c0,6.758,5.492,12.25,12.242,12.25h94.023
		c6.766,0,12.258-5.492,12.258-12.25V14.012c0-6.75-5.492-12.242-12.258-12.242H14.93z"/>
	<path style="fill:#FFFFFF;" d="M93.523,16.082c1.734,0,3.125,1.398,3.125,3.102v10.633H28.109V19.207
		c0-1.703,1.391-3.094,3.102-3.094L93.523,16.082z M48.281,26.418c1.875,0,3.406-1.555,3.406-3.438c0-1.875-1.531-3.414-3.406-3.414
		c-1.883,0-3.406,1.539-3.406,3.414C44.875,24.863,46.398,26.418,48.281,26.418z M38.242,26.418c1.906,0,3.406-1.555,3.406-3.438
		c0-1.875-1.5-3.414-3.406-3.414c-1.875,0-3.406,1.539-3.406,3.414C34.836,24.863,36.367,26.418,38.242,26.418z"/>
	<path style="fill:#FFFFFF;" d="M27.938,106.535V37.73c0-1.711,1.398-3.102,3.102-3.102h62.336c1.711,0,3.102,1.391,3.102,3.102
		v68.828L27.938,106.535z M61.852,90.887c12.188,0,22.078-9.891,22.078-22.078S74.039,46.73,61.852,46.73
		c-12.195,0-22.07,9.891-22.07,22.078S49.656,90.887,61.852,90.887z"/>
	<path style="fill:#FFFFFF;" d="M79.727,63.16c0.469,1.609,0.711,3.305,0.711,5.078c0,10.234-8.328,18.531-18.562,18.531
		c-10.25,0-18.555-8.297-18.555-18.531c0-1.906,0.297-3.734,0.805-5.453v0.031c1.188,1.281,2.875,2.094,4.773,2.094
		c1.648,0,3.125-0.594,4.273-1.617h-0.023c1.156,1.023,2.664,1.617,4.297,1.617c1.695,0,3.25-0.648,4.406-1.75v0.023
		C63,64.262,64.539,64.91,66.25,64.91c1.758,0,3.375-0.695,4.516-1.828v0.023c1.148,1.133,2.734,1.805,4.5,1.805
		c1.703,0,3.289-0.672,4.438-1.773L79.727,63.16z"/>
</g>
</svg>
